X:2895
T:Charlie Stewart's Jig
M:6/8
L:1/8
K:A
d|cee Ace|faf ecA|def ecA|GBB BAB|!
cee efg|agf ece|(3e/f/g/ af ecA|B3 A2:|!
|:d|cAA eAA|faf ecA|cAA eAA|GBB BAB|!
cAA eAA|fef efg|agf eac|B3 A2:|!


